app/dist/common/images/kitwave-plc.svg

<svg height="18" viewBox="0 0 18 18" width="18" xmlns="http://www.w3.org/2000/svg"><path d="m0 0h18v18h-18z" fill="#f0f3fa"/><path d="m8.4 8.85 1.9 3.41c.24.42.06.74-.44.74h-.86a.77.77 0 0 1 -.73-.44l-1.39-2.56h-.88v2.38c0 .4-.24.61-.64.61h-.74c-.4 0-.62-.2-.62-.61v-6.76c0-.4.21-.62.62-.62h.74c.4 0 .64.21.64.62v2.38h.79l1.43-2.56a.76.76 0 0 1 .74-.44h.77c.5 0 .67.31.44.74l-1.77 3.09zm5.6-3.23v6.44c-.66.2-1.31.4-1.94.64a.75.75 0 0 1 -.06-.32v-6.76c0-.4.22-.62.63-.62h.74c.41 0 .63.21.63.62z" fill="#000f9f"/></svg>

<!-- by TradingView --><svg width="18" height="18" viewBox="0 0 18 18" xmlns="http://www.w3.org/2000/svg"><path fill="#F0F3FA" d="M0 0h18v18H0z"/><path d="m8.4 8.85 1.9 3.41c.24.42.06.74-.44.74H9a.77.77 0 0 1-.73-.44L6.88 10H6v2.38c0 .4-.24.61-.64.61h-.74c-.4 0-.62-.2-.62-.61V5.62c0-.4.21-.62.62-.62h.74c.4 0 .64.21.64.62V8h.79l1.43-2.56A.76.76 0 0 1 8.96 5h.77c.5 0 .67.31.44.74L8.4 8.83v.02ZM14 5.62v6.44c-.66.2-1.31.4-1.94.64a.75.75 0 0 1-.06-.32V5.62c0-.4.22-.62.63-.62h.74c.41 0 .63.21.63.62Z" fill="#000F9F"/></svg>
